src/assets/filled/ReceiptSquare.svg

<?xml version="1.0" encoding="UTF-8"?>
<svg width="24" height="24" viewBox="0 0 24 24" xmlns="http://www.w3.org/2000/svg">
 <path d="m16.19 2h-8.38c-3.64 0-5.81 2.17-5.81 5.81v8.37c0 3.65 2.17 5.82 5.81 5.82h8.37c3.64 0 5.81-2.17 5.81-5.81v-8.38c0.01-3.64-2.16-5.81-5.8-5.81zm0.81 13.71c0 1.57-0.86 1.94-1.9 0.82-0.48-0.51-1.22-0.47-1.64 0.09l-0.59 0.79c-0.47 0.63-1.25 0.63-1.72 0l-0.6-0.8c-0.42-0.56-1.16-0.6-1.64-0.09-1.05 1.12-1.91 0.75-1.91-0.81v-6.63c0-2.37 0.56-2.96 2.78-2.96h4.44c2.22 0 2.78 0.59 2.78 2.96v6.63z"/>
</svg>

<svg width="24" height="24" viewBox="0 0 24 24"  xmlns="http://www.w3.org/2000/svg">
<path d="M16.19 2H7.81C4.17 2 2 4.17 2 7.81V16.18C2 19.83 4.17 22 7.81 22H16.18C19.82 22 21.99 19.83 21.99 16.19V7.81C22 4.17 19.83 2 16.19 2ZM17 15.71C17 17.28 16.14 17.65 15.1 16.53C14.62 16.02 13.88 16.06 13.46 16.62L12.87 17.41C12.4 18.04 11.62 18.04 11.15 17.41L10.55 16.61C10.13 16.05 9.39 16.01 8.91 16.52C7.86 17.64 7 17.27 7 15.71V9.08C7 6.71 7.56 6.12 9.78 6.12H14.22C16.44 6.12 17 6.71 17 9.08V15.71Z" />
</svg>
